packages/dnb-ui-lib/assets/icons/refresh_medium.svg

<svg width="24" height="24" viewBox="0 0 24 24" fill="none" xmlns="http://www.w3.org/2000/svg">
<path d="M1.37449 8.29509C1.23812 8.68621 1.44464 9.11383 1.83577 9.25019C2.22689 9.38656 2.6545 9.18003 2.79087 8.78891L1.37449 8.29509ZM21.9172 8.542L21.209 8.78891L21.2813 8.9961L21.4538 9.13169L21.9172 8.542ZM22.6254 15.7049C22.7618 15.3138 22.5553 14.8862 22.1641 14.7498C21.773 14.6134 21.3454 14.82 21.209 15.2111L22.6254 15.7049ZM2.08268 15.458L2.79087 15.2111L2.71864 15.0039L2.54616 14.8683L2.08268 15.458ZM22.5 9V9.75C22.9142 9.75 23.25 9.41421 23.25 9H22.5ZM23.25 2.5C23.25 2.08579 22.9142 1.75 22.5 1.75C22.0858 1.75 21.75 2.08579 21.75 2.5H23.25ZM16 8.25C15.5858 8.25 15.25 8.58579 15.25 9C15.25 9.41421 15.5858 9.75 16 9.75V8.25ZM8 15.75C8.41421 15.75 8.75 15.4142 8.75 15C8.75 14.5858 8.41421 14.25 8 14.25V15.75ZM1.5 15V14.25C1.08579 14.25 0.75 14.5858 0.75 15H1.5ZM0.75 21.5C0.75 21.9142 1.08579 22.25 1.5 22.25C1.91421 22.25 2.25 21.9142 2.25 21.5H0.75ZM2.79087 8.78891C4.1186 4.98071 7.74135 2.25 12 2.25V0.75C7.08366 0.75 2.90576 3.9031 1.37449 8.29509L2.79087 8.78891ZM12 2.25C16.2586 2.25 19.8813 4.9807 21.209 8.78891L22.6254 8.29509C21.0941 3.9031 16.9162 0.75 12 0.75V2.25ZM21.209 15.2111C19.8813 19.0193 16.2586 21.75 12 21.75V23.25C16.9162 23.25 21.0941 20.0969 22.6254 15.7049L21.209 15.2111ZM12 21.75C7.74135 21.75 4.1186 19.0193 2.79087 15.2111L1.37449 15.7049C2.90576 20.0969 7.08366 23.25 12 23.25V21.75ZM23.25 9V2.5H21.75V9H23.25ZM22.5 8.25H16V9.75H22.5V8.25ZM8 14.25H1.5V15.75H8V14.25ZM0.75 15V21.5H2.25V15H0.75ZM21.4538 9.13169L22.0366 9.58969L22.9634 8.41031L22.3807 7.95231L21.4538 9.13169ZM2.54616 14.8683L1.96348 14.4103L1.03652 15.5897L1.6192 16.0476L2.54616 14.8683Z" fill="black"/>
</svg>

<svg width="24" height="24" viewBox="0 0 24 24" fill="none" xmlns="http://www.w3.org/2000/svg"><path d="M1.374 8.295a.75.75 0 101.417.494l-1.417-.494zm20.543.247l-.708.247.072.207.173.136.463-.59zm.708 7.163a.75.75 0 10-1.416-.494l1.416.494zm-20.542-.247l.708-.247-.072-.207-.173-.136-.463.59zM22.5 9v.75a.75.75 0 00.75-.75h-.75zm.75-6.5a.75.75 0 00-1.5 0h1.5zM16 8.25a.75.75 0 000 1.5v-1.5zm-8 7.5a.75.75 0 000-1.5v1.5zM1.5 15v-.75a.75.75 0 00-.75.75h.75zm-.75 6.5a.75.75 0 001.5 0H.75zM2.79 8.789A9.754 9.754 0 0112 2.25V.75C7.084.75 2.906 3.903 1.374 8.295l1.417.494zM12 2.25a9.754 9.754 0 019.209 6.539l1.416-.494C21.095 3.903 16.916.75 12 .75v1.5zm9.209 12.961A9.754 9.754 0 0112 21.75v1.5c4.916 0 9.094-3.153 10.625-7.545l-1.416-.494zM12 21.75a9.754 9.754 0 01-9.21-6.539l-1.416.494C2.906 20.097 7.084 23.25 12 23.25v-1.5zM23.25 9V2.5h-1.5V9h1.5zm-.75-.75H16v1.5h6.5v-1.5zm-14.5 6H1.5v1.5H8v-1.5zM.75 15v6.5h1.5V15H.75zm20.704-5.868l.583.458.926-1.18-.582-.458-.927 1.18zM2.546 14.868l-.583-.458-.926 1.18.582.458.927-1.18z" fill="#000"/></svg>
